X:490
T: ICH WOLLT MIR ZU EINEM KITTELCHEN SAMMELN
N: E1747
O: Europa, Mitteleuropa, Deutschland, Schlesien
R: Scherz -, Spiel - Lied, Zaehl - Geschichte
M: 3/8
L: 1/16
K: C
G,2 | C2C2C2 | C4C2 | C2B,2A,2 | G,2G,2
G,2 | G,2G,2G,2 | C4G,2 | G,2F,2F,2 | E,2E,2
E,2 | C2B,2A,2 | G,4G,2 | C2B,2A,2 | G,4
G,2 | C2B,2A,2 | G,4G,2 | C2B,2A,2 | G,4
G,2 | C2B,2A,2 | G,2G,2G,G, | C2B,2A,2 | G,4z2 |
G,4G,2 | G,2G,2G,2 | G,2G,2G,2 | C4

@@@ Tune index: 5174
